X: 1321
T: Cawdor Fair
C:Trad
B: australian traditional tunes wiki
M:4/4
L:1/8
R: Highland Schottische
Q: 1/4=100
K:G
V:1 
"G"g>f e>d e>gd2|d>e d<B "D"d2d2|"G"g>f e>d e<gB2|"Am"A>B c>de2e2|
"G"d<g g>a g>a gf|"Am"e>a a>b a2g>a|"G"b>a g>f g>f e>d|"D7"e>g f>a "G"g2g2||
% abcbook-tune_id 6342d53af59fec9c3b526269


% abcbook-boost 0
% abcbook-tablature 
% abcbook-transpose 
% abcbook-lastupdated 1665324359088
% abcbook-soundfonts 
% abcbook-repeats 1
% NFF Book 2017

